X:66
T:Musical Priest, The
S:The Session: https://thesession.org/tunes/73#setting73
C:Traditional
R:reel
K:Bmin
M:4/4
L:1/8
Q:1/4=120
BA|: FBBA B2Bd| cBAf ecBA| FBBA B2Bd|1 cBAc B2 BA:|2 cBAc B2 Bc |]
|: d2dc dfed| (3cBA eA fAeA| dcBc defb| afec B2 :|
| dBB2 bafb| afec ABce| dB B2 bafb| afec B2Bc|
| dB B2 bafb| afec ABce| dcBc defb| afec B2|

